X:405
T:B405-  Sabina
S:(1st/2)
Q:1/4=120
L:1/4
M:C|
K:G dorian
G|B3/2c/dG|^FBA3/2A/|G2z2|\
B2Bf|d3d|c3/2d/B3/2c/|A4|\
zBBB|G2zc|ccA2|zddd|\
B2zf|d3d|c3c|B3B|\
A3/2A/G3/2G/|^FBA3/2A/|.G4|]
